X: 26500
T: Michael McDonald's
R: jig
M: 6/8
K: Amixolydian
|:e2A GAA|dcG AAA|e2A GAd|ccc dcd|
e2A GAA|dcG AAA|BBB gfg|dBG Bcd:|
c2a ged|c2a GBd|c2a ged|ccc dcd|
c2a aga|edc ecA|BBB gfg|dBG Bcd|
c2a ged|c2a GBd|c2a ged|ccc dcd|
eag edc|ecA GBd|BBB gfg|dBG Bcd||

